X:1
T: the Lakes of Ponchartrain
T:Lily of the West
S:Gregory R. Taylor <taylgr@shasta.csuchico.edu> 2000-01-30
M:3/4
K:A
E2|A4 f2|e4 fe|c2 B2 e2|c4 B2|\
A F3 G2|A4 A2|(A6 |A4) e2|
e4 c2|e2 f2 g2|a4 a2|g2 f2 e2|\
c4 B2|c2 d2 e2|(f6 | f4) f2|
e4 c2|e2 f2 g2|a4 a2|g2 f2 e2|\
c4 B2|c2 d2 e2|(f6 | f4) A2|
A4 f2|e4 fe|c2 B2 e2|c4 B2|\
A F3 G2|A4 A2|(A6 |A4) |>|
